img/MP.svg

<svg width="22" height="14" viewBox="0 0 22 14" fill="none" xmlns="http://www.w3.org/2000/svg">
<path d="M14.0662 1.9104H8.30164V12.2814H14.0662V1.9104Z" fill="#F16522"/>
<path d="M8.66323 7.09612C8.66323 4.98785 9.65235 3.12449 11.1839 1.91064C10.0672 1.02687 8.65259 0.505127 7.1104 0.505127C3.47296 0.505127 0.526855 3.45457 0.526855 7.09612C0.526855 10.7377 3.47296 13.6871 7.1104 13.6871C8.64195 13.6871 10.0565 13.1654 11.1839 12.2816C9.65235 11.0677 8.66323 9.19373 8.66323 7.09612Z" fill="#E41B24"/>
<path d="M21.841 7.0959C21.841 10.7374 18.8948 13.6869 15.2574 13.6869C13.7259 13.6869 12.3113 13.1651 11.1839 12.2814C12.7155 11.0782 13.6939 9.20416 13.6939 7.0959C13.6939 4.98764 12.7155 3.12427 11.1839 1.91042C12.3007 1.02665 13.7152 0.504911 15.2574 0.504911C18.8948 0.494264 21.841 3.45435 21.841 7.0959ZM21.2134 11.174V10.9611H21.2985V10.9185H21.0858V10.9611H21.1709V11.174H21.2134ZM21.6389 11.174V10.9185H21.5751L21.5006 11.0995L21.4262 10.9185H21.3623V11.174H21.4049V10.9823L21.4793 11.1527H21.5325L21.607 10.9823V11.174H21.6389Z" fill="#F89E1C"/>
</svg>

<svg width="22" height="14" fill="none" xmlns="http://www.w3.org/2000/svg"><path d="M14.066 1.91H8.302v10.371h5.764V1.911z" fill="#F16522"/><path d="M8.663 7.096c0-2.108.99-3.972 2.52-5.185A6.534 6.534 0 007.11.505 6.585 6.585 0 00.527 7.096a6.585 6.585 0 006.583 6.591 6.579 6.579 0 004.074-1.405 6.612 6.612 0 01-2.52-5.186z" fill="#E41B24"/><path d="M21.841 7.096a6.586 6.586 0 01-6.584 6.59 6.58 6.58 0 01-4.073-1.405 6.57 6.57 0 002.51-5.185 6.586 6.586 0 00-2.51-5.186A6.534 6.534 0 0115.257.505c3.638-.01 6.584 2.95 6.584 6.59zm-.628 4.078v-.213h.085v-.043h-.212v.043h.085v.213h.042zm.426 0v-.255h-.064l-.074.18-.075-.18h-.064v.255h.043v-.192l.074.17h.053l.075-.17v.192h.032z" fill="#F89E1C"/></svg>
